!!!!SEGMENT: pl-kk--kk-i-138--001_anonim--catherinae-virginis-laudes-decantemus.krn
!!!cenid: 17xx:2656
!!!COM: Anonim
!!!COM-rismID: pe30004985
!!!CDT:
!!!CNT:
!!!OTL: Catherinae virginis laudes decantemus
!!!PDT:
!!!AGN: Sacred
!!!YEC: Copyright 2022 Narodowy Instytut Fryderyka Chopina (https://polishscores.org)
!!!YEM: License CC-BY-4.0 (https://creativecommons.org/licenses/by/4.0)
!!!SMS-siglum: PL-Kk
!!!SMS-shelfmark: Kk.I.138
!!!SMS-variant:
!!!SMS-altvar:
!!!SMS-shelfwork: 001 W
!!!NIFC-rismSourceID: 1001157185
!!!NIFC-rismChildID: 1001157189
!!!NIFC-islandoraID: pl-kk:15879
!!!URL-pdf-islandora: https://repozytorium.nifc.pl/islandora/object/pl-kk%3A15879/datastream/PDF/view
!!!URL-scan: https://polish.musicsources.pl/pl/lokalizacje/galeria/rekopisy/7103/1 @EN{Scan on Polish Music Sources Website} @PL{Skany w portalu Dziedzictwo Muzyki Polskiej w otwartym dostępie}
!!!IIIF:
!!!ONB-nifc: UWAGA: utwory w źródle: 1. Catherinae virginis laudes decantemus, 2. Sanctorum meritis (tylko partia basowa, s. 12).
!!!AIN: 1 alto 1 bass 2 canto 1 organ 1 tenor
!!!key:
**kern	**fba	**blank	**text	**kern	**text	**text	**text	**text	**text	**text	**kern	**text	**text	**text	**text	**text	**text	**kern	**text	**text	**text	**text	**text	**text	**kern	**text	**text	**text	**text	**text	**text	**kern	**text	**text	**text	**text	**text	**text
*part6	*	*	*part6	*part5	*part5	*part5	*part5	*part5	*part5	*part5	*part4	*part4	*part4	*part4	*part4	*part4	*part4	*part3	*part3	*part3	*part3	*part3	*part3	*part3	*part2	*part2	*part2	*part2	*part2	*part2	*part2	*part1	*part1	*part1	*part1	*part1	*part1	*part1
*staff6	*	*	*staff6	*staff5	*staff5	*staff5	*staff5	*staff5	*staff5	*staff5	*staff4	*staff4	*staff4	*staff4	*staff4	*staff4	*staff4	*staff3	*staff3	*staff3	*staff3	*staff3	*staff3	*staff3	*staff2	*staff2	*staff2	*staff2	*staff2	*staff2	*staff2	*staff1	*staff1	*staff1	*staff1	*staff1	*staff1	*staff1
*I"Per il organo	*	*	*	*I"Baſſo	*	*	*	*	*	*	*I"Tenore	*	*	*	*	*	*	*I"alto.	*	*	*	*	*	*	*I"Canto 2do.	*	*	*	*	*	*	*I"Canto 1mo.	*	*	*	*	*	*
*I'org	*	*	*	*I'B	*	*	*	*	*	*	*I'T	*	*	*	*	*	*	*I'A	*	*	*	*	*	*	*I'S 2	*	*	*	*	*	*	*I'S 1	*	*	*	*	*	*
*Iorgan	*	*	*	*Ibass	*	*	*	*	*	*	*Itenor	*	*	*	*	*	*	*Ialto	*	*	*	*	*	*	*Icanto	*	*	*	*	*	*	*Icanto	*	*	*	*	*	*
*ICklav	*	*	*	*ICvox	*	*	*	*	*	*	*ICvox	*	*	*	*	*	*	*ICvox	*	*	*	*	*	*	*ICvox	*	*	*	*	*	*	*ICvox	*	*	*	*	*	*
*clefC4	*	*	*	*clefF4	*	*	*	*	*	*	*clefC4	*	*	*	*	*	*	*clefC3	*	*	*	*	*	*	*clefC1	*	*	*	*	*	*	*clefC1	*	*	*	*	*	*
*k[]	*	*	*	*k[]	*	*	*	*	*	*	*k[]	*	*	*	*	*	*	*k[]	*	*	*	*	*	*	*k[]	*	*	*	*	*	*	*k[]	*	*	*	*	*	*
*C:	*	*	*	*C:	*	*	*	*	*	*	*C:	*	*	*	*	*	*	*C:	*	*	*	*	*	*	*C:	*	*	*	*	*	*	*C:	*	*	*	*	*	*
*M2/1	*	*	*	*M2/1	*	*	*	*	*	*	*M2/1	*	*	*	*	*	*	*M2/1	*	*	*	*	*	*	*M2/1	*	*	*	*	*	*	*M2/1	*	*	*	*	*	*
*	*	*	*	*met(C|)	*	*	*	*	*	*	*met(C|)	*	*	*	*	*	*	*met(C|)	*	*	*	*	*	*	*met(C|)	*	*	*	*	*	*	*met(C|)	*	*	*	*	*	*
*	*	*	*	*	*v:[1]	*v:[2]	*v:[3]	*v:4]	*v:[5]	*v:[6]	*	*v:[1]	*v:[2]	*v:[3]	*v:[4]	*v:[5]	*v:[6]	*	*v:[1]	*v:[2]	*v:[3]	*v:[4]	*v:[5]	*v:[6]	*	*v:[1]	*v:[2]	*v:[3]	*v:[4]	*v:[5]	*v:[6]	*	*v:[1]	*v:[2]	*v:[3]	*v:[4]	*v:[5]	*v:[6]
=1	=1	=1	=1	=1	=1	=1	=1	=1	=1	=1	=1	=1	=1	=1	=1	=1	=1	=1	=1	=1	=1	=1	=1	=1	=1	=1	=1	=1	=1	=1	=1	=1	=1	=1	=1	=1	=1	=1
!	!	!	!	!LO:TX:a:t=2	!	!	!	!	!	!	!	!	!	!	!	!	!	!	!	!	!	!	!	!	!	!	!	!	!	!	!	!LO:TX:a:t=5	!	!	!	!	!	!
!	!	!	!	!	!	!	!	!	!	!	!LO:TX:t=P:problem:kreska pseudotaktowa	!	!	!	!	!	!	!	!	!	!	!	!	!	!	!	!	!	!	!	!	!	!	!	!	!	!	!
!	!	!	!	!	!	!	!	!	!	!	!	!	!	!	!	!	!	!	!	!	!	!	!	!	!LO:TX:a:t=5	!	!	!	!	!	!	!	!	!	!	!	!	!
1G	.	.	Ca-	0r	.	.	.	.	.	.	1G	1 Ca-	2. au-	3. Te-	4. Ri-	5. O	6. Ho-	00r	.	.	.	.	.	.	00r	.	.	.	.	.	.	00r	.	.	.	.	.	.
2A\	6	.	-tha-	.	.	.	.	.	.	.	2A/	-tha-	-dit	-ter	-dent	San-	-nor	.	.	.	.	.	.	.	.	.	.	.	.	.	.	.	.	.	.	.	.	.
!	!	!	!	!	!	!	!	!	!	!	!LO:TX:t=P:problem:kreska pseudotaktowa	!	!	!	!	!	!	!	!	!	!	!	!	!	!	!	!	!	!	!	!	!	!	!	!	!	!	!
2B\	5	.	-ri-	.	.	.	.	.	.	.	2B/	-ri-	fa-	in-	doc-	-cta	iſ-	.	.	.	.	.	.	.	.	.	.	.	.	.	.	.	.	.	.	.	.	.
=2	=2	=2	=2	=2	=2	=2	=2	=2	=2	=2	=2	=2	=2	=2	=2	=2	=2	=2	=2	=2	=2	=2	=2	=2	=2	=2	=2	=2	=2	=2	=2	=2	=2	=2	=2	=2	=2	=2
!	!	!	!	!LO:TX:t=P:problem:kreska pseudotaktowa	!	!	!	!	!	!	!	!	!	!	!	!	!	!	!	!	!	!	!	!	!	!	!	!	!	!	!	!	!	!	!	!	!	!
*clefF4	*	*	*	*	*	*	*	*	*	*	*lig	*	*	*	*	*	*	*	*	*	*	*	*	*	*	*	*	*	*	*	*	*	*	*	*	*	*	*
!	!	!	!	!	!	!	!	!	!	!	!	!	!	!	!	!	!	!LO:TX:t=P:problem:kreska pseudotaktowa	!	!	!	!	!	!	!	!	!	!	!	!	!	!	!	!	!	!	!	!
1C	.	.	.	1C	1 Ca-	2. au-	3. Te-	4. Ri-	5. O	6. Ho-	1c	-nae	-no	-quit	-ti	Ca-	-te	.	.	.	.	.	.	.	.	.	.	.	.	.	.	.	.	.	.	.	.	.
2D/	6	.	.	2D/	-tha-	-dit	-ter	-dent	San-	-nor	1B	.	.	.	.	.	.	.	.	.	.	.	.	.	.	.	.	.	.	.	.	.	.	.	.	.	.	.
2E\	3 5	.	.	2E/	-ri-	Fa-	in-	doc-	-cta	iſ-	.	.	.	.	.	.	.	.	.	.	.	.	.	.	.	.	.	.	.	.	.	.	.	.	.	.	.	.
!LO:TX:t=P:problem:kreska pseudotaktowa	!	!	!	!LO:TX:t=P:problem:kreska pseudotaktowa	!	!	!	!	!	!	!	!	!	!	!	!	!	!	!	!	!	!	!	!	!	!	!	!	!	!	!	!	!	!	!	!	!	!
*	*	*	*	*	*	*	*	*	*	*	*Xlig	*	*	*	*	*	*	*	*	*	*	*	*	*	*	*	*	*	*	*	*	*	*	*	*	*	*	*
=3	=3	=3	=3	=3	=3	=3	=3	=3	=3	=3	=3	=3	=3	=3	=3	=3	=3	=3	=3	=3	=3	=3	=3	=3	=3	=3	=3	=3	=3	=3	=3	=3	=3	=3	=3	=3	=3	=3
!	!	!	!	!	!	!	!	!	!	!	!	!	!	!	!	!	!	!	!	!	!	!	!	!	!LO:TX:t=P:problem:kreska pseudotaktowa	!	!	!	!	!	!	!LO:TX:t=P:problem:kreska pseudotaktowa	!	!	!	!	!	!
1.F	.	.	-nae	1.F	-nae	-no	-quit	-ti	Ca-	-te	2.A/	Vir-	be-	eſt	Doc-	-tha-	de-	1c	1 Ca-	2 Au-	3 Te-	4 Ri-	5. O	6. Ho-	1r	.	.	.	.	.	.	1r	.	.	.	.	.	.
!	!	!	!	!	!	!	!	!	!	!	!LO:TX:t=P:problem:kreska pseudotaktowa	!	!	!	!	!	!	!	!	!	!	!	!	!	!	!	!	!	!	!	!	!	!	!	!	!	!	!
.	4 2	.	.	.	.	.	.	.	.	.	4A/	-gi-	-li-	Dae-	-to-	-ri-	-be-	.	.	.	.	.	.	.	.	.	.	.	.	.	.	.	.	.	.	.	.	.
!	!	!	!	!	!	!	!	!	!	!	!LO:TX:t=P:problem:kreska pseudotaktowa	!	!	!	!	!	!	!	!	!	!	!	!	!	!	!	!	!	!	!	!	!	!	!	!	!	!	!
.	.	.	.	.	.	.	.	.	.	.	1G	-niſ	-al	-mon	-res	-na	-tur	2d\	-tha-	-dit	-ter	-dent	San-	-nor	1g	1. Ca-	2. au-	3. Te-	4. Ri-	5. O	6. Ho-	1g	1. Ca-	2. au-	3. Te-	4. Ri-	6. ho-	5. O
!LO:TX:t=P:problem:kreska pseudotaktowa	!	!	!	!LO:TX:t=P:problem:kreska pseudotaktowa	!	!	!	!	!	!	!	!	!	!	!	!	!	!LO:TX:t=P:problem:kreska pseudotaktowa	!	!	!	!	!	!	!	!	!	!	!	!	!	!	!	!	!	!	!	!
2E\	6	.	Vir-	2E\	Vir-	be-	eſt	Doc-	-tha-	de-	.	.	.	.	.	.	.	2e\	-ri-	fa-	in-	doc-	-cta	iſ-	.	.	.	.	.	.	.	.	.	.	.	.	.	.
=4	=4	=4	=4	=4	=4	=4	=4	=4	=4	=4	=4	=4	=4	=4	=4	=4	=4	=4	=4	=4	=4	=4	=4	=4	=4	=4	=4	=4	=4	=4	=4	=4	=4	=4	=4	=4	=4	=4
1D	7	.	-gi-	2.D/	.	.	.	.	.	.	2A/	Vir-	be-	Dae-	Do-	-Ca-	de-	1f	-nae	-no	-quit	-ti	Ca-	-te	2a\	-tha-	-dit	-ter	-dent	ſan-	-nor	2a\	-tha-	-dit	-ter	-dent	-nor	ſ(an)-
!	!	!	!	!	!	!	!	!	!	!	!	!	!	!	!	!	!	!	!	!	!	!	!	!	!LO:TX:t=P:problem:kreska pseudotaktowa	!	!	!	!	!	!	!LO:TX:t=P:problem:kreska pseudotaktowa	!	!	!	!	!	!
.	6	.	.	.	.	.	.	.	.	.	2d\	.	.	.	.	-tha-	-be-	.	.	.	.	.	.	.	2b\	-ri-	fa-	in-	doc-	-cta	iſ-	2b\	-ri-	fa-	in-	Doc-	iſ-	-cta
!	!	!	!	!LO:TX:t=P:problem:kreska pseudotaktowa	!	!	!	!	!	!	!	!	!	!	!	!	!	!	!	!	!	!	!	!	!	!	!	!	!	!	!	!	!	!	!	!	!	!
.	.	.	.	4D/	-gi-	-li-	dae-	-to-	-ri-	-be-	.	.	.	.	.	.	.	.	.	.	.	.	.	.	.	.	.	.	.	.	.	.	.	.	.	.	.	.
2C/	.	.	-nis	2C,/	-niſ	-al	-mon	-res	-na	-tur	2G/	.	.	.	-cto-	-ri-	.	2e\	Vir-	be-	est	Do-	-tha-	de-	1cc	-nae	-no	-quit	-ti	Ca-	-te	1cc	-nae	-no	-quit	-ti	-te	Ca-
[2F\	.	.	Vir-	[2F\	Vir-	tu-	quem	cer-	-nos	Sum-	[2A/	.	.	.	.	.	.	[2a\	.	.	Dae-	.	.	-be-	.	.	.	.	.	.	.	.	.	.	.	.	.	.
=5	=5	=5	=5	=5	=5	=5	=5	=5	=5	=5	=5	=5	=5	=5	=5	=5	=5	=5	=5	=5	=5	=5	=5	=5	=5	=5	=5	=5	=5	=5	=5	=5	=5	=5	=5	=5	=5	=5
*	*	*	*	*	*	*	*	*	*	*	*	*	*	*	*	*	*	*	*	*	*	*	*	*	*lig	*	*	*	*	*	*	*	*	*	*	*	*	*
*	*	*	*	*	*	*	*	*	*	*	*	*	*	*	*	*	*	*	*	*	*	*	*	*	*col	*	*	*	*	*	*	*	*	*	*	*	*	*
!	!	!	!	!	!	!	!	!	!	!	!	!	!	!	!	!	!	!	!	!	!	!	!	!	!	!	!	!	!	!	!	!LO:TX:t=P:problem:kreska pseudotaktowa	!	!	!	!	!	!
4F\]	.	.	.	4F\]	.	.	.	.	.	.	4A/]	.	.	.	.	.	.	4a\]	.	.	.	.	.	.	1a	Vir-	be-	eſt	Doc-	-tha-	de-	1a	Vir-	Be-	eſt	Doc-	de-	-tha-
4G\	.	.	.	4G\	.	-mul-	.	.	ser-	.	4B\	.	.	.	.	.	.	4g\	.	.	.	.	.	.	.	.	.	.	.	.	.	.	.	.	.	.	.	.
4A\	.	.	.	4A\	.	.	.	.	.	.	4c\	.	.	.	.	.	.	4f\	.	.	.	.	.	.	.	.	.	.	.	.	.	.	.	.	.	.	.	.
!LO:TX:t=P:problem:kreska pseudotaktowa	!	!	!	!LO:TX:t=P:problem:kreska pseudotaktowa	!	!	!	!	!	!	!LO:TX:t=P:problem:kreska pseudotaktowa	!	!	!	!	!	!	!LO:TX:t=P:problem:kreska pseudotaktowa	!	!	!	!	!	!	!	!	!	!	!	!	!	!	!	!	!	!	!	!
4F\	.	.	.	4F\	.	.	.	.	.	.	4A\	.	.	.	.	.	.	4a\	.	.	.	.	.	.	.	.	.	.	.	.	.	.	.	.	.	.	.	.
1G	4	.	-gi-	2.G\	.	.	Tu	.	.	.	2.d\	.	.	.	.	.	.	2.g\	.	.	.	.	.	.	2.dd\	.	.	.	.	.	.	2.dd\	.	-li-	Dae-	-to-	-be-	-ri-
.	3	.	.	.	.	.	.	.	.	.	.	.	.	.	.	.	.	.	.	.	.	.	.	.	.	.	.	.	.	.	.	.	.	.	.	.	.	.
*	*	*	*	*	*	*	*	*	*	*	*	*	*	*	*	*	*	*	*	*	*	*	*	*	*Xlig	*	*	*	*	*	*	*	*	*	*	*	*	*
*	*	*	*	*	*	*	*	*	*	*	*	*	*	*	*	*	*	*	*	*	*	*	*	*	*Xcol	*	*	*	*	*	*	*	*	*	*	*	*	*
!	!	!	!	!LO:TX:t=P:problem:kreska pseudotaktowa	!	!	!	!	!	!	!	!	!	!	!	!	!	!LO:TX:t=P:problem:kreska pseudotaktowa	!	!	!	!	!	!	!LO:TX:t=P:problem:kreska pseudotaktowa	!	!	!	!	!	!	!	!	!	!	!	!	!
.	.	.	.	4G\	-gi-	.	cae-	-ta-	.	.	4d\	-gi-	-li-	.	.	.	.	4g\	-gi-	-li-	.	-cto-	-ri-	.	4dd\	-gi-	-li-	Dae-	-to-	-ri-	-be-	4dd\	-gi-	-al	-mon	-reſ	-tur	-na
=6	=6	=6	=6	=6	=6	=6	=6	=6	=6	=6	=6	=6	=6	=6	=6	=6	=6	=6	=6	=6	=6	=6	=6	=6	=6	=6	=6	=6	=6	=6	=6	=6	=6	=6	=6	=6	=6	=6
!	!	!	!	!	!	!	!	!	!	!	!LO:TX:t=P:problem:kreska pseudotaktowa	!	!	!	!	!	!	!	!	!	!	!	!	!	!	!	!	!	!	!	!	!LO:TX:t=P:problem:kreska pseudotaktowa	!	!	!	!	!	!
2C,/	.	.	-nis	2C/	-niſ	-tus	.	-tes	-ves	-mo	1e	-niſ	-al	-mon	-res	-na	-tur	2g\	-nis	-al	-mon	-res	-na	-t(ur)	2cc\	-nis	-al	-mon	-res	-na	-tur	1cc	-nis	tu-	.	.	.	.
!	!	!	!	!	!	!	!	!	!	!	!	!	!	!	!	!	!	!LO:TX:t=P:problem:kreska pseudotaktowa	!	!	!	!	!	!	!	!	!	!	!	!	!	!	!	!	!	!	!	!
1A	.	.	Lau-	1A	lau-	tu-	.	pu-	à	Cre-	.	.	.	.	.	.	.	2r	.	.	.	.	.	.	2.ee\	Lau-	tu-	quem	cer-	nos	Sum-	.	.	.	.	.	.	.
!	!	!	!	!	!	!	!	!	!	!	!	!	!	!	!	!	!	!LO:TX:a:t=2	!	!	!	!	!	!	!	!	!	!	!	!	!	!	!	!	!	!	!	!
.	.	.	.	.	.	.	.	.	.	.	2r	.	.	.	.	.	.	0r	.	.	.	.	.	.	.	.	.	.	.	.	.	1cc	Lau-	-mul-	quem	Cer-	Sum-	nos
.	.	.	.	.	.	.	.	.	.	.	.	.	.	.	.	.	.	.	.	.	.	.	.	.	4dd\	.	-mul-	.	.	.	.	.	.	.	.	.	.	.
!	!	!	!	!LO:TX:t=P:problem:kreska pseudotaktowa	!	!	!	!	!	!	!	!	!	!	!	!	!	!	!	!	!	!	!	!	!	!	!	!	!	!	!	!	!	!	!	!	!	!
2A\	.	.	-des	2A\	-deſ	-mul-	-ſar	-el-	ru-	-à-	[2e\	Lau-	tu-	quem	cer-	nos	Sum-	.	.	.	.	.	.	.	4ee\	.	.	.	.	.	.	.	.	.	.	.	.	.
!	!	!	!	!	!	!	!	!	!	!	!	!	!	!	!	!	!	!	!	!	!	!	!	!	!LO:TX:t=P:problem:kreska pseudotaktowa	!	!	!	!	!	!	!	!	!	!	!	!	!
.	.	.	.	.	.	.	.	.	.	.	.	.	.	.	.	.	.	.	.	.	.	.	.	.	4dd\	.	.	.	.	.	.	.	.	.	.	.	.	.
=7	=7	=7	=7	=7	=7	=7	=7	=7	=7	=7	=7	=7	=7	=7	=7	=7	=7	=7	=7	=7	=7	=7	=7	=7	=7	=7	=7	=7	=7	=7	=7	=7	=7	=7	=7	=7	=7	=7
!	!	!	!	!	!	!	!	!	!	!	!	!	!	!	!	!	!	!LO:TX:t=P:problem:kreska pseudotaktowa	!	!	!	!	!	!	!	!	!	!	!	!	!	!	!	!	!	!	!	!
4E\	6	.	de-	4E\	de-	-tus	co-	.	-i-	.	2e\]	.	.	.	.	.	.	.	.	.	.	.	.	.	1cc	-des	-tus	tu	-tan-	ser-	-(m)o	1ee	-des	-t(us)	tu	-tan-	-mo	ser-
4F\	.	.	.	4F\	.	.	.	.	.	.	.	.	.	.	.	.	.	.	.	.	.	.	.	.	.	.	.	.	.	.	.	.	.	.	.	.	.	.
!	!	!	!	!	!	!	!	!	!	!	!LO:TX:t=P:problem:kreska pseudotaktowa	!	!	!	!	!	!	!	!	!	!	!	!	!	!	!	!	!	!	!	!	!	!	!	!	!	!	!
4G\	.	.	-can-	4G\	.	.	.	.	.	.	2e\	-des	-mul-	Tu	-tan-	ser-	-mo	.	.	.	.	.	.	.	.	.	.	.	.	.	.	.	.	.	.	.	.	.
!LO:TX:t=P:problem:kreska pseudotaktowa	!	!	!	!LO:TX:t=P:problem:kreska pseudotaktowa	!	!	!	!	!	!	!	!	!	!	!	!	!	!	!	!	!	!	!	!	!	!	!	!	!	!	!	!	!	!	!	!	!	!
4E\	.	.	.	4E\	.	.	.	.	.	.	.	.	.	.	.	.	.	.	.	.	.	.	.	.	.	.	.	.	.	.	.	.	.	.	.	.	.	.
*custos:F	*	*	*	*	*	*	*	*	*	*	*	*	*	*	*	*	*	*	*	*	*	*	*	*	*	*	*	*	*	*	*	*	*	*	*	*	*	*
!LO:LB:g=original	!	!	!	!	!	!	!	!	!	!	!	!	!	!	!	!	!	!	!	!	!	!	!	!	!	!	!	!	!	!	!	!	!	!	!	!	!	!
2F\	.	.	te-	2F\	-can-	mul-	.	.	.	.	2c\	de-	-t(us)	cae-	-tes	-ves	Cre-	2a\	Lau-	tu-	quem	cer-	nos	Sum-	2a\	dê-	mul-	Cae-	-tes	-ves	Cre-	2.cc\	de-	mul-	Cae-	-tes	Cre-	-ves
!	!	!	!	!	!	!	!	!	!	!	!LO:TX:t=P:problem:kreska pseudotaktowa	!	!	!	!	!	!	!	!	!	!	!	!	!	!	!	!	!	!	!	!	!	!	!	!	!	!	!
4E\	.	.	.	4E\	.	.	.	.	.	.	2c\	-can-	mul-	-ſar	cum	à	-a-	(4g\	-des	-mul-	Tu	-tan-	ser-	-mo	[2cc\	-can-	-to-	.	cum	à	-a-	.	.	.	.	.	.	.
!LO:TX:t=P:problem:kreska pseudotaktowa	!	!	!	!	!	!	!	!	!	!	!	!	!	!	!	!	!	!LO:TX:t=P:problem:kreska pseudotaktowa	!	!	!	!	!	!	!	!	!	!	!	!	!	!LO:TX:t=P:problem:kreska pseudotaktowa	!	!	!	!	!	!
4D/	.	.	.	4D/	.	.	.	.	.	.	.	.	.	.	.	.	.	4f\)	.	.	.	.	.	.	.	.	.	.	.	.	.	4dd\	.	.	.	cu(m)	.	a
=8	=8	=8	=8	=8	=8	=8	=8	=8	=8	=8	=8	=8	=8	=8	=8	=8	=8	=8	=8	=8	=8	=8	=8	=8	=8	=8	=8	=8	=8	=8	=8	=8	=8	=8	=8	=8	=8	=8
2C/	.	.	.	2C/	.	.	.	.	.	.	4c\	-te-	-to-	co-	pu-	-ru-	-to-	2e\	dê-	-t(us)	cae-	-tes	-ves	Cre-	4cc\]	.	.	.	.	.	.	(2.ee\	-can-	-to-	-ſar	Pu-	a-	ru-
.	.	.	.	.	.	.	.	.	.	.	4B\	.	.	.	.	-i-	.	.	.	.	.	.	.	.	4g/	.	.	.	.	.	.	.	.	.	.	.	.	.
!	!	!	!	!LO:TX:t=P:problem:kreska pseudotaktowa	!	!	!	!	!	!	!	!	!	!	!	!	!	!LO:TX:t=P:problem:kreska pseudotaktowa	!	!	!	!	!	!	!	!	!	!	!	!	!	!	!	!	!	!	!	!
2A\	5	.	.	2A\	-te-	-to-	.	.	.	.	4c\	.	.	.	-el-	.	.	2c/	-can-	mul-	-ſar	cum	à	-a-	1cc	-te-	.	-ſar	pu-	-ru-	-to-	.	.	.	.	.	.	.
.	6	.	.	.	.	.	.	.	.	.	4A/	.	.	.	.	.	.	.	.	.	.	.	.	.	.	.	.	.	.	.	.	4ff\)	.	.	.	.	.	.
!LO:TX:t=P:problem:kreska pseudotaktowa	!	!	!	!	!	!	!	!	!	!	!	!	!	!	!	!	!	!	!	!	!	!	!	!	!	!	!	!	!	!	!	!	!	!	!	!	!	!
1G	4	.	.	1G	.	.	.	.	.	-to-	2d\	.	.	.	.	.	.	1g	-te-	-to-	co-	puel-	-rui-	-to-	.	.	.	.	.	.	.	1gg	-te-	.	cae-	-el-	-to-	-i-
!	!	!	!	!	!	!	!	!	!	!	!LO:TX:t=P:problem:kreska pseudotaktowa	!	!	!	!	!	!	!	!	!	!	!	!	!	!LO:TX:t=P:problem:kreska pseudotaktowa	!	!	!	!	!	!	!	!	!	!	!	!	!
.	3	.	.	.	.	.	.	.	.	.	2B\	.	.	.	.	.	.	.	.	.	.	.	.	.	2b\	.	.	cae-	-el-	-i-	.	.	.	.	.	.	.	.
=9	=9	=9	=9	=9	=9	=9	=9	=9	=9	=9	=9	=9	=9	=9	=9	=9	=9	=9	=9	=9	=9	=9	=9	=9	=9	=9	=9	=9	=9	=9	=9	=9	=9	=9	=9	=9	=9	=9
!	!	!	!	!	!	!	!	!	!	!	!	!	!	!	!	!	!	!	!	!	!	!	!	!	!	!	!	!	!	!	!	!LO:TX:t=P:problem:kreska pseudotaktowa	!	!	!	!	!	!
2C/	.	.	-m(us)	2C,/	-m(us)	-rum	-lis	-la	-na	-ri	2G/	.	.	.	.	.	.	2g,\	-m(us)	-rum	-lis	-la	-na	-ri	2cc,\	-m(us)	-ru(m)	-lis	-la,	-na	-ri	1ee	-m(us)	-ru(m)	-lis	-la,	-ri,	-na
!	!	!	!	!	!	!	!	!	!	!	!LO:TX:t=P:problem:kreska pseudotaktowa	!	!	!	!	!	!	!	!	!	!	!	!	!	!	!	!	!	!	!	!	!	!	!	!	!	!	!
1c	.	.	et	1c	et	et	Va-	et	ne	Je-	2G/	-m(us)	-rum	-lis	-la	-na	-ri	1g	êt	et	va-	et	ne	Je-	1ee	et	et	Va-	et	ne	Je-	.	.	.	.	.	.	.
.	.	.	.	.	.	.	.	.	.	.	2r	.	.	.	.	.	.	.	.	.	.	.	.	.	.	.	.	.	.	.	.	2r	.	.	.	.	.	.
!LO:TX:t=P:problem:kreska pseudotaktowa	!	!	!	!LO:TX:t=P:problem:kreska pseudotaktowa	!	!	!	!	!	!	!	!	!	!	!	!	!	!LO:TX:t=P:problem:kreska pseudotaktowa	!	!	!	!	!	!	!LO:TX:t=P:problem:kreska pseudotaktowa	!	!	!	!	!	!	!	!	!	!	!	!	!
2A\	5	.	fi-	2A\	fi-	fran-	fer,	ſae-	da-	-ſu	[2c\	et	et	Va-	et	ne	Je-	2a\	fi-	fran-	fer,	ſae-	dam-	-ſu	2cc\	Fi-	Fran-	fer,	ſae-	dam-	-ſu	([2ee\	et	et	Va-	et	Je-	ne
=10	=10	=10	=10	=10	=10	=10	=10	=10	=10	=10	=10	=10	=10	=10	=10	=10	=10	=10	=10	=10	=10	=10	=10	=10	=10	=10	=10	=10	=10	=10	=10	=10	=10	=10	=10	=10	=10	=10
2E\	.	.	-de-	2E,\	-dei-	-ge-	fal-	-cun-	-mne-	(Chris)-	2c\]	.	.	.	.	.	.	2g\	-de-	-ge-	fal-	-cun-	-ne-	(Chris)-	2g/	-de-	-ge-	fal-	-cun-	-ne-	(Chris)-	2ee\]	.	.	.	.	.	.
!LO:TX:t=P:problem:kreska pseudotaktowa	!	!	!	!LO:TX:t=P:problem:kreska pseudotaktowa	!	!	!	!	!	!	!LO:TX:t=P:problem:kreska pseudotaktowa	!	!	!	!	!	!	!	!	!	!	!	!	!	!	!	!	!	!	!	!	!LO:TX:t=P:problem:kreska pseudotaktowa	!	!	!	!	!	!
2A\	.	.	-i	2A\	pu-	-re	lax,	-da	rum	-to	2A/	fi-	fran-	fer,	ſae-	da-	-ſu	2a\	-i	-re	-lax,	-da	-mur	-to	2cc\	-i	-re	-lax,	-da	-mur	-to	2cc\)	.	.	.	.	.	.
!	!	!	!	!	!	!	!	!	!	!	!LO:LB:g=original	!	!	!	!	!	!	!	!	!	!	!	!	!	!	!	!	!	!	!	!	!	!	!	!	!	!	!
2.G\	.	.	pu-	2.G\	-gi-	-pro-	.	splen-	.	Do-	2.B\	-1 de-	-2 -	3. fal-	-4 cun-	-5. mne-	6. (Chris)-	2.g\	pu-	p(ro)-	in-	Splen-	cum	Do-	2.b\	pu-	pro-	in-	Splen-	cum	Do-	2.dd\	Fi-	Fran-	fer,	ſae-	-ſu	dam-
!LO:TX:t=P:problem:kreska pseudotaktowa	!	!	!	!LO:TX:t=P:problem:kreska pseudotaktowa	!	!	!	!	!	!	!LO:TX:t=P:problem:kreska pseudotaktowa	!	!	!	!	!	!	!LO:TX:t=P:problem:kreska pseudotaktowa	!	!	!	!	!	!	!LO:TX:t=P:problem:kreska pseudotaktowa	!	!	!	!	!	!	!	!	!	!	!	!	!
4F\	.	.	-gi-	4G\	-le(m)	-pe-	in-	-di-	-cum	-mi-	4B\	-i	-ge-	-lax,	-da	-mur	-to	4g\	-gi-	-pe-	-vi-	.	im-	.	4a\	-gi-	-pe-	-vi-	-di-	.	-mi-	4dd\	-de-	-ge-	fal-	-cun-	Chri-	-ne-
!	!	!	!	!LO:LB:g=original	!	!	!	!	!	!	!	!	!	!	!	!	!	!	!	!	!	!	!	!	!	!	!	!	!	!	!	!	!	!	!	!	!	!
=11	=11	=11	=11	=11	=11	=11	=11	=11	=11	=11	=11	=11	=11	=11	=11	=11	=11	=11	=11	=11	=11	=11	=11	=11	=11	=11	=11	=11	=11	=11	=11	=11	=11	=11	=11	=11	=11	=11
2E\	6	.	-lem	2E\	1 pu-	-2. rat	.	-da	im-	-no	2c\	pu-	-re	in-	splen-	cum	Do-	2g\	-lem	-rat	-d(ens)	.	.	.	2g,/	-lem	-rat	-d(ens),	-da	.	-no	2ee\	-i	-re	-lax,	-da	-ſto	-mur
!	!	!	!	!	!	!	!	!	!	!	!LO:TX:t=P:problem:kreska pseudotaktowa	!	!	!	!	!	!	!	!	!	!	!	!	!	!LO:TX:t=P:problem:kreska pseudotaktowa	!	!	!	!	!	!	!	!	!	!	!	!	!
4BB/	6	.	.	4BB/	.	p(ro)-	.	splen-	.	Do-	2B\	.	pro-	.	.	.	.	4d\	pu-	pro-	in-	.	.	.	2g/	pu-	pro-	in-	Splen-	im-	Do-	1dd	pu-	pro-	in-	Splen-	Do-	cu(m)
!LO:TX:t=P:problem:kreska pseudotaktowa	!	!	!	!LO:TX:t=P:problem:kreska pseudotaktowa	!	!	!	!	!	!	!	!	!	!	!	!	!	!LO:TX:t=P:problem:kreska pseudotaktowa	!	!	!	!	!	!	!	!	!	!	!	!	!	!	!	!	!	!	!	!
4C/	5	.	.	4C/	.	.	.	.	.	.	.	.	.	.	.	.	.	4e\	.	.	.	.	.	.	.	.	.	.	.	.	.	.	.	.	.	.	.	.
1D	4	.	.	2.D/	.	.	.	.	.	.	2.A/	.	.	.	.	im-	.	2d\	.	.	.	.	.	.	2.dd\	-gi-	-pe-	.	-di-	.	.	.	.	.	.	.	.	.
!	!	!	!	!	!	!	!	!	!	!	!	!	!	!	!	!	!	!	!	!	!	!	!	!	!	!	!	!	!	!	!	!LO:TX:t=P:problem:kreska pseudotaktowa	!	!	!	!	!	!
.	3	.	.	.	.	.	.	.	.	.	.	.	.	.	.	.	.	4a\	.	pe-	.	.	.	.	.	.	.	.	.	.	.	2dd\	-gi-	-pe-	-vi-	-di-	-mi-	im-
!	!	!	!	!LO:TX:t=P:problem:kreska pseudotaktowa	!	!	!	!	!	!	!LO:TX:t=P:problem:kreska pseudotaktowa	!	!	!	!	!	!	!LO:TX:t=P:problem:kreska pseudotaktowa	!	!	!	!	!	!	!LO:TX:t=P:problem:kreska pseudotaktowa	!	!	!	!	!	!	!	!	!	!	!	!	!
.	.	.	.	4D/	-gu-	-pe-	-vi-	di-	-pi-	-mi-	4A/	-gi-	-pe-	-vi-	-di-	-pi-	-mi-	4a\	-gi-	-rat	-vi-	-di-	-pi-	-mi-	4cc\	.	.	-vi-	.	-pi-	-mi-	.	.	.	.	.	.	.
*	*	*	*	*	*	*	*	*	*	*	*	*	*	*	*	*	*	*	*	*	*	*	*	*	*custos:b	*	*	*	*	*	*	*	*	*	*	*	*	*
!	!	!	!	!	!	!	!	!	!	!	!	!	!	!	!	!	!	!	!	!	!	!	!	!	!LO:LB:g=original	!	!	!	!	!	!	!	!	!	!	!	!	!
=12	=12	=12	=12	=12	=12	=12	=12	=12	=12	=12	=12	=12	=12	=12	=12	=12	=12	=12	=12	=12	=12	=12	=12	=12	=12	=12	=12	=12	=12	=12	=12	=12	=12	=12	=12	=12	=12	=12
2GG,/	.	.	.	2GG,/	-lem	-rat	-dus	-da	-js	-no	2B,\	-le(m)	-rat	-dus	-da	-js	-no	2g\	-le(m)	ri-	-d(us)	-da	-js	-no	2b,\	-1. lem	-2 rat	-3 dus	-4 da,	-5. is	-6. no	2b\	-lem	-rat	-d(us),	-da	-no	-pijs
!	!	!	!	!	!	!	!	!	!	!	!	!	!	!	!	!	!	!LO:TX:t=P:problem:kreska pseudotaktowa:między nutą a kropką	!	!	!	!	!	!	!	!	!	!	!	!	!	!LO:LB:g=original	!	!	!	!	!	!
2.C/	.	.	pre-	2.C/	pre-	ri-	eſt	sub-	in	noſ-	1G	pre-	ri-	eſt	sub-	in	noſ-	(2.e\	pre-	.	est	sub-	in	no-	1ee	pre-	ri-	eſ-	Sub-	in	no-	1cc	1. pre-	2. ri-	3. eſ-	4. Sub-	6. no-	5. in
!	!	!	!	!	!	!	!	!	!	!	!	!	!	!	!	!	!	!LO:LB:g=original	!	!	!	!	!	!	!	!	!	!	!	!	!	!	!	!	!	!	!	!
4D\	.	.	.	4D/	.	.	.	.	.	.	.	.	.	.	.	.	.	4f\)	-1-	2.-	3	.	5.	-6.-	.	.	.	.	.	.	.	.	.	.	.	.	.	.
!	!	!	!	!	!	!	!	!	!	!	!LO:TX:t=P:problem:kreska pseudotaktowa	!	!	!	!	!	!	!	!	!	!	!	!	!	!LO:TX:t=P:problem:kreska pseudotaktowa	!	!	!	!	!	!	!LO:TX:t=P:problem:kreska pseudotaktowa	!	!	!	!	!	!
4E\	.	.	.	4E\	.	.	.	.	.	.	2G/	-ce	-tus	q(ue)	-in-	di-	-tro	4g\	.	.	.	.	.	.	2ee\	-ce	-t(us)	-q(ue)	-in-	di-	-ſtro	2cc\	-ce	-t(us)	-que	-in-	-ſtro	di-
!LO:TX:t=P:problem:kreska pseudotaktowa	!	!	!	!LO:TX:t=P:problem:kreska pseudotaktowa	!	!	!	!	!	!	!	!	!	!	!	!	!	!LO:TX:t=P:problem:kreska pseudotaktowa	!	!	!	!	!	!	!	!	!	!	!	!	!	!	!	!	!	!	!	!
4C/	.	.	-ce	4C/	-ce	.	.	-in-	.	.	.	.	.	.	.	.	.	4e\	.	.	.	.	.	.	.	.	.	.	.	.	.	.	.	.	.	.	.	.
=13	=13	=13	=13	=13	=13	=13	=13	=13	=13	=13	=13	=13	=13	=13	=13	=13	=13	=13	=13	=13	=13	=13	=13	=13	=13	=13	=13	=13	=13	=13	=13	=13	=13	=13	=13	=13	=13	=13
!LO:TX:t=P:problem:kreska pseudotaktowa	!	!	!	!	!	!	!	!	!	!	!	!	!	!	!	!	!	!	!	!	!	!	!	!	!	!	!	!	!	!	!	!	!	!	!	!	!	!
1F	.	.	in-	1F	in-	-tus	q(ue)	-trant	di-	-tro	1A	in-	per-	cae-	-trant	-e	Re-	1a	-ce	.	.	.	.	-stro	2.a\	in-	per-	cae-	-trant	-e	-Re-	2.cc\	in-	per-	cae-	-trant	Re-	-ae
.	.	.	.	.	.	.	.	.	.	.	.	.	.	.	.	.	.	.	.	.	.	.	.	.	4b\	.	.	.	.	.	.	4dd\	.	.	.	.	.	.
!	!	!	!	!	!	!	!	!	!	!	!	!	!	!	!	!	!	!	!	!	!	!	!	!	!LO:TX:t=P:problem:kreska pseudotaktowa	!	!	!	!	!	!	!	!	!	!	!	!	!
*custos:E	*	*	*	*	*	*	*	*	*	*	*	*	*	*	*	*	*	*	*	*	*	*	*	*	*	*	*	*	*	*	*	*	*	*	*	*	*	*
!LO:LB:g=original	!	!	!	!	!	!	!	!	!	!	!	!	!	!	!	!	!	!	!	!	!	!	!	!	!	!	!	!	!	!	!	!	!	!	!	!	!	!
2E\	6	.	.	2E\	-vo-	per-	cae-	du-	-e	Re-	2G/	-vo-	-ver-	-cus	du-	ul-	-dem-	2g\	in-	.	que	-in-	di-	Re-	[1cc	-vo-	-ver-	-cus	du-	ul-	-dem-	2ee\	-vo-	.	.	.	.	.
!LO:TX:t=P:problem:kreska pseudotaktowa:między nutą a kropką	!	!	!	!LO:TX:t=P:problem:kreska pseudotaktowa:między nutą a kropką	!	!	!	!	!	!	!LO:TX:t=P:problem:kreska pseudotaktowa	!	!	!	!	!	!	!LO:TX:t=P:problem:kreska pseudotaktowa	!	!	!	!	!	!	!	!	!	!	!	!	!	!	!	!	!	!	!	!
([2F\	.	.	.	([2F\	-ce-	-ver-	-cus	-el-	ul-	-dem-	2A/	-ce-	-ſo-	so-	-el-	.	-pto-	2f\	.	-tus	cae-	-trant	-è	-dem-	.	.	.	.	.	.	.	[2a\	-ce-	-ver-	-cus	du-	-dem-	in-
=14	=14	=14	=14	=14	=14	=14	=14	=14	=14	=14	=14	=14	=14	=14	=14	=14	=14	=14	=14	=14	=14	=14	=14	=14	=14	=14	=14	=14	=14	=14	=14	=14	=14	=14	=14	=14	=14	=14
4F\]	.	.	.	4F\]	.	.	so-	.	.	.	2c\	.	.	.	.	.	.	1f	-vo-	per-	-cus	du-	ul-	-pto-	2cc\]	.	.	.	.	.	.	4a\]	.	.	.	.	.	.
4G\)	.	.	.	4G\)	.	.	.	.	.	.	.	.	.	.	.	.	.	.	.	.	.	.	.	.	.	.	.	.	.	.	.	4b\	.	.	.	.	.	.
!	!	!	!	!	!	!	!	!	!	!	!	!	!	!	!	!	!	!	!	!	!	!	!	!	!	!	!	!	!	!	!	!LO:TX:t=P:problem:kreska pseudotaktowa	!	!	!	!	!	!
2A\	.	.	-vo-	2A\	.	.	.	.	.	.	1c	.	.	.	.	.	.	.	.	.	.	.	.	.	2a\	-ce-	-ſo-	ſo-	-el-	-ti-	-pto-	2cc\	.	-ſo-	ſo-	-el-	.	.
!	!	!	!	!	!	!	!	!	!	!	!	!	!	!	!	!	!	!	!	!	!	!	!	!	!LO:TX:t=P:problem:kreska pseudotaktowa	!	!	!	!	!	!	!	!	!	!	!	!	!
1G	4	.	-ce-	1G	.	-ſo-	.	.	-ti-	-pto-	.	.	.	.	.	.	.	2d\	.	-ve-	so-	-el-	-ti-	.	1dd	.	.	.	.	.	.	1dd	.	.	.	.	-pto-	-ti-
.	3	.	.	.	.	.	.	.	.	.	2B\	.	.	.	.	-ti-	.	2g\	-ce-	-ſo-	.	.	.	.	.	.	.	.	.	.	.	.	.	.	.	.	.	.
=15	=15	=15	=15	=15	=15	=15	=15	=15	=15	=15	=15	=15	=15	=15	=15	=15	=15	=15	=15	=15	=15	=15	=15	=15	=15	=15	=15	=15	=15	=15	=15	=15	=15	=15	=15	=15	=15	=15
*M3/2	*	*	*	*M3/2	*	*	*	*	*	*	*M3/2	*	*	*	*	*	*	*M3/2	*	*	*	*	*	*	*M3/2	*	*	*	*	*	*	*M3/2	*	*	*	*	*	*
1C	.	.	-m(us)	1.C	-m(us)	-rum	-lus	-la	-ma	-ri	1c,	-m(us)	-rum	-lus	-la	-ma	-ri	1g,	-m(us)	-rum	-lus.	-la	-ma	-ri.	1cc,	-m(us)	-r(um)	-lus.	-la	-ma	-ri.	1ee,	-m(us)	-r(um)	-lus.	-la	-ri	-ma
*clefC4	*	*	*	*	*	*	*	*	*	*	*	*	*	*	*	*	*	*	*	*	*	*	*	*	*	*	*	*	*	*	*	*	*	*	*	*	*	*
2c\	.	.	Fe-	.	.	.	.	.	.	.	2c\	fe-	Fe-	Fe-	Fe-	Fe-	Fe-	2g\	Fe-	Fe-	Fe-	Fe-	Fe-	Fe-	2cc\	Fe-	Fe-	Fe-	Fe-	Fe-	Fe-	2ee\	Fe-	Fe-	Fe-	Fe-	.	Fe-
=16	=16	=16	=16	=16	=16	=16	=16	=16	=16	=16	=16	=16	=16	=16	=16	=16	=16	=16	=16	=16	=16	=16	=16	=16	=16	=16	=16	=16	=16	=16	=16	=16	=16	=16	=16	=16	=16	=16
!	!	!	!	!LO:TX:a:t=2	!	!	!	!	!	!	!	!	!	!	!	!	!	!	!	!	!	!	!	!	!	!	!	!	!	!	!	!	!	!	!	!	!	!
1B	6	.	-lix	0.r	.	.	.	.	.	.	1B	-lix	-lix	-lix	-lix	-lix.	-lix	1g	-lix	-lix	-lix	-lix	-lix.	-lix	1g	-lix	-lix	-lix	-lix	-lix	-lix	1dd	-lix	-lix	-lix	-lix	.	-lix
2c\	.	.	di-	.	.	.	.	.	.	.	2c\	di-	d(i-	d(i-	d(i-	d(i-	di-	2g\	di-	d(i-	D(i-	D(i-	.	di-	2cc\	di-	d(i-	Di-	di-	di-	(di-	2ee\	di-	d(i-	di-	di-	.	di-
=17	=17	=17	=17	=17	=17	=17	=17	=17	=17	=17	=17	=17	=17	=17	=17	=17	=17	=17	=17	=17	=17	=17	=17	=17	=17	=17	=17	=17	=17	=17	=17	=17	=17	=17	=17	=17	=17	=17
2F/	6 5	.	-es	.	.	.	.	.	.	.	2F/	-es	-es	-es	-es	-es	-es	2a\	-es	-es	-es	-es	.	-es	2cc\	-es	-es	-(es	-es	-es	-es	1dd	-es	-es	-es	-es	.	-es
1G	.	.	iſ-	.	.	.	.	.	.	.	1G	is-	is-	is-	is-	is-	iſ-	2.g\	is-	is-	is-	iſ-	.	iſ-	(2cc\	is-	is-	is-	iſ-	iſ-	iſ-	.	.	.	.	.	.	.
.	.	.	.	.	.	.	.	.	.	.	.	.	.	.	.	.	.	.	.	.	.	.	.	.	2b\)	.	.	.	.	.	.	2dd\	is-	is-	is-	(is-	.	Fe-
.	.	.	.	.	.	.	.	.	.	.	.	.	.	.	.	.	.	4f\	.	.	.	.	.	.	.	.	.	.	.	.	.	.	.	.	.	.	.	.
=18	=18	=18	=18	=18	=18	=18	=18	=18	=18	=18	=18	=18	=18	=18	=18	=18	=18	=18	=18	=18	=18	=18	=18	=18	=18	=18	=18	=18	=18	=18	=18	=18	=18	=18	=18	=18	=18	=18
1C	.	.	-ta	2r	.	.	.	.	.	.	1C	-ta	-ta	-ta	-ta	-ta	-ta.	1e,	-ta	-ta	-ta	-ta	.	-ta	1cc,	-ta	-ta)	-ta	-ta	-ta.	-ta)	1cc,	-ta	-ta)	-ta	-ta)	.	-lix
.	.	.	.	2r	.	.	.	.	.	.	.	.	.	.	.	.	.	.	.	.	.	.	.	.	.	.	.	.	.	.	.	.	.	.	.	.	.	.
*clefF4	*	*	*	*	*	*	*	*	*	*	*	*ij	*	*	*	*	*ij	*	*	*	*	*	*	*ij	*	*ij	*	*	*ij	*ij	*	*	*ij	*ij	*	*	*	*
2C/	.	.	/Fe-	2c\	Fe-	Fe-	Fe-	Fe-	Fe-	Fe-	2c\	fe-	fe-	fe-	fe-	fe-	Fe-	2g\	Fe-	Fe-	Fe-	Fe-	.	Fe-	2cc\	Fe-	Fe-	Fe-	Fe-	Fe-	Fe-	2ee\	Fe-	Fe-	fe-	Fe-	.	di-
=19	=19	=19	=19	=19	=19	=19	=19	=19	=19	=19	=19	=19	=19	=19	=19	=19	=19	=19	=19	=19	=19	=19	=19	=19	=19	=19	=19	=19	=19	=19	=19	=19	=19	=19	=19	=19	=19	=19
1BB	6	.	-lix	1B	-lix	-lix	-lix	-lix	-lix	-lix	1d	-lix	-lix	-lix	-lix	-lix	-lix	1g	-lix	-lix	-lix	-lix	.	-lix	1g	-lix	-lix	-lix	-lix	-lix	-lix	1dd,	-lix	-lix	-lix	-lix	.	-es
2C/	.	.	di-	2c\	di-	di-	d(i-	d(i-	d(i-	di-	2c\	di-	di-	di-	di-	di-	di-	2e\	di-	di-	Di-	di-	.	di-	[2cc\	di-	di-	Di-	di-	di-	di-	2ee\	di-	d(i-	di-	di-	.	Iſ-
=20	=20	=20	=20	=20	=20	=20	=20	=20	=20	=20	=20	=20	=20	=20	=20	=20	=20	=20	=20	=20	=20	=20	=20	=20	=20	=20	=20	=20	=20	=20	=20	=20	=20	=20	=20	=20	=20	=20
2FF/	6	.	-es	2F\	-es	-es	-es	-es	-es	-es	2f\	-es	-es	-es	-es	-es	-es	2a\	-es	-es	-es	-es	.	-es	2cc\]	.	.	.	.	.	.	1dd	-es	-es	-es	-es	.	.
1GG	4	.	iſ-	1G	is-	iſ-	is-	is-	is-	iſ-	2c\	is-	is-	is-	is-	is-	iſ-	(2d\	iſ-	iſ-	iſ-	iſ-	.	iſ-	2cc\	-es	-es	-es	-es	-es	-es	.	.	.	.	.	.	.
.	3	.	.	.	.	.	.	.	.	.	2d\	.	.	.	.	.	.	2g\)	.	.	.	.	.	.	2b\	is-	iſ-	is-	iſ-	iſ-	iſ-	2dd\	is-	is-	is-	(is-	.	.
=21	=21	=21	=21	=21	=21	=21	=21	=21	=21	=21	=21	=21	=21	=21	=21	=21	=21	=21	=21	=21	=21	=21	=21	=21	=21	=21	=21	=21	=21	=21	=21	=21	=21	=21	=21	=21	=21	=21
!LO:TX:t=P:problem:fermata powyżej i poniżej 	!	!	!	!LO:TX:t=P:problem:fermata powyżej i poniżej	!	!	!	!	!	!	!LO:TX:t=P:problem:fermata powyżej i poniżej	!	!	!	!	!	!	!LO:TX:t=P:problem:fermata powyżej i poniżej	!	!	!	!	!	!	!LO:TX:t=P:problem:fermata powyżej i poniżej	!	!	!	!	!	!	!	!	!	!	!	!	!
1.C;	.	.	-ta/	1.C;	-ta	-ta	-ta)	-ta)	-ta)	-ta.	1.e;	-ta	-ta)	-ta)	-ta)	-ta)	-ta	1.g;	-ta.	-ta)	-ta)	-ta)	.	-ta	1.cc;	-ta	-ta	-ta)	-ta	-ta	-ta.	1.cc	-ta	-ta)	-ta	-ta)	.	-ta
*	*	*	*	*	*	*	*	*	*	*	*	*Xij	*	*	*	*	*Xij	*	*	*	*	*	*	*Xij	*	*Xij	*	*	*Xij	*Xij	*	*	*Xij	*Xij	*	*	*	*
==	==	==	==	==	==	==	==	==	==	==	==	==	==	==	==	==	==	==	==	==	==	==	==	==	==	==	==	==	==	==	==	==	==	==	==	==	==	==
*-	*-	*-	*-	*-	*-	*-	*-	*-	*-	*-	*-	*-	*-	*-	*-	*-	*-	*-	*-	*-	*-	*-	*-	*-	*-	*-	*-	*-	*-	*-	*-	*-	*-	*-	*-	*-	*-	*-
!!!system-decoration: [([(s1,s2)]s3,s4,s5)]s6
!!!ENC: Filip Voros
!!!END: 2024-05-21
!!!ENC: Leszek Kubiak
!!!END: 2024-06-22
